assets/illustrations/multisize/32/one.svg

<svg id="b1491489-4636-4716-99b4-eef76025325c" data-name="ICONS" xmlns="http://www.w3.org/2000/svg" xmlns:xlink="http://www.w3.org/1999/xlink" viewBox="0 0 32 32"><defs><linearGradient id="40930e5a-5d74-4994-a4a2-fd9433c3a683" x1="6.06901" y1="2.7812" x2="28.11983" y2="29.06035" gradientUnits="userSpaceOnUse"><stop offset="0" stop-color="#fff" stop-opacity="0"/><stop offset="0.86247" stop-color="#5e5e5e" stop-opacity="0.06315"/><stop offset="1" stop-opacity="0.1"/></linearGradient><linearGradient id="2d4fbc55-cd55-4be7-9212-a6d4b377d7ce" x1="9.5" y1="26.4375" x2="9.5" y2="9.52504" gradientUnits="userSpaceOnUse"><stop offset="0" stop-color="#fff" stop-opacity="0"/><stop offset="0.52587" stop-color="#fff" stop-opacity="0.00735"/><stop offset="0.71529" stop-color="#fff" stop-opacity="0.03396"/><stop offset="0.8503" stop-color="#fff" stop-opacity="0.0803"/><stop offset="0.95875" stop-color="#fff" stop-opacity="0.14595"/><stop offset="1" stop-color="#fff" stop-opacity="0.18"/></linearGradient><linearGradient id="472610ac-a610-4ed0-a707-4850e667a58a" x1="11.28178" y1="29.35196" x2="11.61734" y2="26.21204" gradientUnits="userSpaceOnUse"><stop offset="0" stop-color="#828282" stop-opacity="0"/><stop offset="0.86247" stop-color="#303030" stop-opacity="0.12631"/><stop offset="1" stop-opacity="0.2"/></linearGradient><linearGradient id="376e743a-4692-438c-990d-342b95a50d10" x1="22.52165" y1="10.47835" x2="30.43568" y2="2.56432" gradientUnits="userSpaceOnUse"><stop offset="0" stop-color="#fff" stop-opacity="0"/><stop offset="0.44604" stop-color="#fff" stop-opacity="0.00799"/><stop offset="0.63551" stop-color="#fff" stop-opacity="0.03616"/><stop offset="0.77636" stop-color="#fff" stop-opacity="0.08493"/><stop offset="0.8924" stop-color="#fff" stop-opacity="0.15385"/><stop offset="0.99328" stop-color="#fff" stop-opacity="0.24291"/><stop offset="1" stop-color="#fff" stop-opacity="0.25"/></linearGradient></defs><title>FileTypeIcons_Master_All_NEW</title><polygon points="7.5 2.5 26.5 2.5 26.5 4.5 28.5 4.5 28.5 9.5 26.5 9.5 26.5 29.5 7.5 29.5 7.5 2.5" fill="#fff"/><path d="M26,3V5h2V9l-1,.00012H26V29H8V3H26m1-1H7V30H27V10h2V4H27V2Z" fill="#949494"/><polygon points="3 11 16 9 16 27 3 25 3 11" fill="#7719aa"/><path d="M13,22H11.231L8.024,16.9735a7.314,7.314,0,0,1-.3907-.66388h-.0217q.04341.424.04341,1.29429V22H6V14H7.88837l3.0876,4.87029q.21162.32916.3907.65272h.0217a8.792,8.792,0,0,1-.04341-1.099V14H13Z" fill="#fff"/><rect x="16" y="11" width="8" height="1" fill="#c8c8c8"/><rect x="16" y="13" width="8" height="1" fill="#c8c8c8"/><rect x="16" y="15" width="8" height="1" fill="#c8c8c8"/><rect x="16" y="17" width="8" height="1" fill="#c8c8c8"/><rect x="16" y="19" width="8" height="1" fill="#c8c8c8"/><rect x="16" y="21" width="8" height="1" fill="#c8c8c8"/><rect x="16" y="23" width="8" height="1" fill="#c8c8c8"/><rect x="16" y="25" width="8" height="1" fill="#c8c8c8"/><rect x="10" y="5" width="6" height="1" fill="#c8c8c8"/><path d="M27,2H7V30H27V10.00012L29,10V4H27V2Z" fill="url(#40930e5a-5d74-4994-a4a2-fd9433c3a683)"/><polygon points="16 9 3 11 3 25 16 27 16 9" fill="url(#2d4fbc55-cd55-4be7-9212-a6d4b377d7ce)"/><polygon points="16 29 7 29 7 25.62 16 27 16 29" fill="url(#472610ac-a610-4ed0-a707-4850e667a58a)"/><path d="M26,3V5h2V9l-1,.00012H26V29H8V3H26m1-1H7V30H27V10.00012L29,10V4H27V2Z" fill="url(#376e743a-4692-438c-990d-342b95a50d10)"/></svg>

<?xml version="1.0" encoding="utf-8"?>
<!-- Generator: Adobe Illustrator 21.1.0, SVG Export Plug-In . SVG Version: 6.00 Build 0)  -->
<svg version="1.1" xmlns="http://www.w3.org/2000/svg" xmlns:xlink="http://www.w3.org/1999/xlink" x="0px" y="0px"
	 viewBox="0 0 32 32" enable-background="new 0 0 32 32" xml:space="preserve">
<g id="TEMPLATE" display="none">
	<g display="inline">
		<path fill="#D0D0D0" d="M32,0v32H0V0H32 M33-1h-1H0h-1v1v32v1h1h32h1v-1V0V-1L33-1z"/>
	</g>
	<g display="inline" opacity="0.1">
		<path fill="#FF3A6D" d="M30,2v28H2V2H30 M32,0H0v32h32V0L32,0z"/>
	</g>
</g>
<g id="ICONS">
	<polygon fill="#FFFFFF" points="7.5,2.5 26.5,2.5 26.5,4.5 28.5,4.5 28.5,9.5 26.5,9.5 26.5,29.5 7.5,29.5 	"/>
	<path fill="#949494" d="M26,3v1v1h1h1v4l-1,0.0001h-1v1V29H8V3H26 M27,2H7v28h20V10h2V4h-2V2L27,2z"/>
	<polygon fill="#7719AA" points="3,11 16,9 16,27 3,25 	"/>
	<g>
		<path fill="#FFFFFF" d="M13,22h-1.769l-3.207-5.0265c-0.1881-0.2938-0.3183-0.5151-0.3907-0.6639H7.6116
			c0.0289,0.2827,0.0434,0.7141,0.0434,1.2943V22H6v-8h1.8884l3.0876,4.8703c0.1411,0.2194,0.2713,0.437,0.3907,0.6527h0.0217
			c-0.0289-0.186-0.0434-0.5523-0.0434-1.099V14H13V22z"/>
	</g>
	<rect x="16" y="11" fill="#C8C8C8" width="8" height="1"/>
	<rect x="16" y="13" fill="#C8C8C8" width="8" height="1"/>
	<rect x="16" y="15" fill="#C8C8C8" width="8" height="1"/>
	<rect x="16" y="17" fill="#C8C8C8" width="8" height="1"/>
	<rect x="16" y="19" fill="#C8C8C8" width="8" height="1"/>
	<rect x="16" y="21" fill="#C8C8C8" width="8" height="1"/>
	<rect x="16" y="23" fill="#C8C8C8" width="8" height="1"/>
	<rect x="16" y="25" fill="#C8C8C8" width="8" height="1"/>
	<rect x="10" y="5" fill="#C8C8C8" width="6" height="1"/>
	<linearGradient id="SVGID_1_" gradientUnits="userSpaceOnUse" x1="6.069" y1="2.7812" x2="28.1198" y2="29.0603">
		<stop  offset="0" style="stop-color:#FFFFFF;stop-opacity:0"/>
		<stop  offset="0.2264" style="stop-color:#FCFCFC;stop-opacity:0.0226"/>
		<stop  offset="0.3626" style="stop-color:#F4F4F4;stop-opacity:0.0363"/>
		<stop  offset="0.475" style="stop-color:#E6E6E6;stop-opacity:0.0475"/>
		<stop  offset="0.5744" style="stop-color:#D1D1D1;stop-opacity:0.0574"/>
		<stop  offset="0.6652" style="stop-color:#B7B7B7;stop-opacity:0.0665"/>
		<stop  offset="0.7498" style="stop-color:#979797;stop-opacity:0.075"/>
		<stop  offset="0.8297" style="stop-color:#707070;stop-opacity:0.083"/>
		<stop  offset="0.9057" style="stop-color:#444444;stop-opacity:0.0906"/>
		<stop  offset="0.9761" style="stop-color:#121212;stop-opacity:0.0976"/>
		<stop  offset="1" style="stop-color:#000000;stop-opacity:0.1"/>
	</linearGradient>
	<path fill="url(#SVGID_1_)" d="M27,2H7v28h20V10.0001L29,10V4h-2V2L27,2z"/>
	<linearGradient id="SVGID_2_" gradientUnits="userSpaceOnUse" x1="9.5" y1="26.4375" x2="9.5" y2="9.525">
		<stop  offset="0" style="stop-color:#FFFFFF;stop-opacity:0"/>
		<stop  offset="0.8587" style="stop-color:#FFFFFF;stop-opacity:0.1546"/>
		<stop  offset="1" style="stop-color:#FFFFFF;stop-opacity:0.18"/>
	</linearGradient>
	<polygon fill="url(#SVGID_2_)" points="16,9 3,11 3,25 16,27 	"/>
	<linearGradient id="SVGID_3_" gradientUnits="userSpaceOnUse" x1="11.2818" y1="29.352" x2="11.6173" y2="26.212">
		<stop  offset="0" style="stop-color:#828282;stop-opacity:0"/>
		<stop  offset="0.2812" style="stop-color:#7F7F7F;stop-opacity:0.0562"/>
		<stop  offset="0.4503" style="stop-color:#777777;stop-opacity:0.0901"/>
		<stop  offset="0.5899" style="stop-color:#696969;stop-opacity:0.118"/>
		<stop  offset="0.7133" style="stop-color:#545454;stop-opacity:0.1427"/>
		<stop  offset="0.8259" style="stop-color:#3A3A3A;stop-opacity:0.1652"/>
		<stop  offset="0.9294" style="stop-color:#1A1A1A;stop-opacity:0.1859"/>
		<stop  offset="1" style="stop-color:#000000;stop-opacity:0.2"/>
	</linearGradient>
	<polygon fill="url(#SVGID_3_)" points="16,29 7,29 7,25.62 16,27 	"/>
	<linearGradient id="SVGID_4_" gradientUnits="userSpaceOnUse" x1="22.5217" y1="10.4783" x2="30.4357" y2="2.5643">
		<stop  offset="0" style="stop-color:#FFFFFF;stop-opacity:0"/>
		<stop  offset="0.8537" style="stop-color:#FFFFFF;stop-opacity:0.2134"/>
		<stop  offset="1" style="stop-color:#FFFFFF;stop-opacity:0.25"/>
	</linearGradient>
	<path fill="url(#SVGID_4_)" d="M26,3v1v1h1h1v4l-1,0.0001h-1v1V29H8V3H26 M27,2H7v28h20V10.0001L29,10V4h-2V2L27,2z"/>
</g>
</svg>
